Obsidian/status/16s/megapaused.svg

<svg height="16" width="16" xmlns="http://www.w3.org/2000/svg"><g fill="#d3dae3"><path d="m8 1a7 7 0 0 0 -7 7 7 7 0 0 0 7 7 7 7 0 0 0 .0058594 0 5 5 0 0 1 -1.0058594-3 5 5 0 0 1 .4199219-2h-.4199219l-1-1.5v2.5h-2v-6h2l2 3 2-3h2v2a5 5 0 0 1 3 1.0078125 7 7 0 0 0 0-.0078125 7 7 0 0 0 -7-7z" opacity=".3"/><path d="m12.279038 8.0080488c-.768533-.054321-1.561885.113119-2.2792976.527344-1.9132001 1.1046001-2.5673911 3.5516442-1.4628911 5.4648442 1.1045001 1.9131 3.5497917 2.567491 5.4628917 1.462891 1.9132-1.1046 2.569344-3.549691 1.464844-5.462891-.690313-1.1956882-1.904658-1.9016512-3.185547-1.9921882zm-2.2792976 1.9921882h1.0000006v4h-1.0000006zm3.0000006 0h1v4h-1z"/></g></svg>

<svg xmlns="http://www.w3.org/2000/svg" width="16" height="16" version="1.1">
 <defs>
  <style id="current-color-scheme" type="text/css">
   .ColorScheme-Text { color:#d3dae3; } .ColorScheme-Highlight { color:#5294e2; }
  </style>
 </defs>
 <g transform="translate(-3,-3)">
  <path style="fill:currentColor;opacity:0.3" class="ColorScheme-Text" d="M 8 1 A 7 7 0 0 0 1 8 A 7 7 0 0 0 8 15 A 7 7 0 0 0 8.0058594 15 A 5 5 0 0 1 7 12 A 5 5 0 0 1 7.4199219 10 L 7 10 L 6 8.5 L 6 11 L 4 11 L 4 5 L 6 5 L 8 8 L 10 5 L 12 5 L 12 7 A 5 5 0 0 1 15 8.0078125 A 7 7 0 0 0 15 8 A 7 7 0 0 0 8 1 z" transform="translate(3,3)"/>
 </g>
 <path style="fill:currentColor" class="ColorScheme-Text" d="m 12.279038,8.0080488 c -0.768533,-0.054321 -1.561885,0.113119 -2.2792976,0.527344 -1.9132001,1.1046001 -2.5673911,3.5516442 -1.4628911,5.4648442 1.1045001,1.9131 3.5497917,2.567491 5.4628917,1.462891 1.9132,-1.1046 2.569344,-3.549691 1.464844,-5.462891 C 14.774272,8.8045488 13.559927,8.0985858 12.279038,8.0080488 Z m -2.2792976,1.9921882 1.0000006,0 0,4 -1.0000006,0 0,-4 z m 3.0000006,0 1,0 0,4 -1,0 0,-4 z"/>
</svg>
